ui/StatusQ/src/assets/img/icons/homepage/swap.svg

<svg fill="none" height="24" viewBox="0 0 24 24" width="24" xmlns="http://www.w3.org/2000/svg"><path clip-rule="evenodd" d="m17.0469 8.81019-2.0003-2.50019-1.0932.87461 1.0903 1.3627h-8.5437v1.4h8.5438l-1.0904 1.36269 1.0932.8747 2.0003-2.49986.3499-.43731z" fill="#09101c" fill-rule="evenodd"/><path clip-rule="evenodd" d="m6.95337 15.1849 2.00005 2.4997 1.09318-.8746-1.09037-1.3627h8.54377v-1.4h-8.54353l1.08993-1.3628-1.0933-.8744-1.99981 2.5003-.34977.4373z" fill="#09101c" fill-rule="evenodd"/><path d="m12 2.49976c-8.5 0-9.5 1-9.5 9.50004 0 8.5 1 9.5 9.5 9.5s9.5-1 9.5-9.5c0-8.50004-1-9.50004-9.5-9.50004z" stroke="#09101c" stroke-width="1.4"/></svg>

<svg width="24" height="24" viewBox="0 0 24 24" fill="none" xmlns="http://www.w3.org/2000/svg">
<path fill-rule="evenodd" clip-rule="evenodd" d="M17.0469 8.81019L15.0466 6.31L13.9534 7.18461L15.0437 8.54731L6.5 8.54731V9.94731L15.0438 9.94731L13.9534 11.31L15.0466 12.1847L17.0469 9.68484L17.3968 9.24753L17.0469 8.81019Z" fill="#09101C"/>
<path fill-rule="evenodd" clip-rule="evenodd" d="M6.95337 15.1849L8.95342 17.6846L10.0466 16.81L8.95623 15.4473L17.5 15.4473V14.0473L8.95647 14.0473L10.0464 12.6845L8.9531 11.8101L6.95329 14.3104L6.60352 14.7477L6.95337 15.1849Z" fill="#09101C"/>
<path d="M12 2.49976C3.5 2.49976 2.5 3.49976 2.5 11.9998C2.5 20.4998 3.5 21.4998 12 21.4998C20.5 21.4998 21.5 20.4998 21.5 11.9998C21.5 3.49976 20.5 2.49976 12 2.49976Z" stroke="#09101C" stroke-width="1.4"/>
</svg>
